X: 1
T:Did You Ever See A Lassie
C:Anonymous
M:3/4
L:1/4
Q:1/4=80
K:D
|"D""@Introduction"z3|"A7"z3|"E7/B"z3
|"A7""@Verses / Chorus"z z D/2F/2|"D"A3/2 B/2 A/2G/2|F D D|"A7"E A, A,|"D"F D D/2F/2
w:Did you ev-er see a las-sie, a las-sie, did you
w:Did you ev-er see a lad-die, a lad-die, did you
|A3/2 B/2 A/2G/2|F D D|"A7"E A, A,|"D"D z D|"A7"E A, A,
w:ev-er see a las-sie go this way and that? Go this way and
w:ev-er see a lad-die go this way and that? Go this way and
|"D"F D D|"A7"E A, A,|"D"F D D/2F/2|A3/2 B/2 "A"A/2G/2
w:that way go this way and that way, did you ev-er see a
w:that way go this way and that way, did you ev-er see a
|"Bm"F D "Bm7"D|"Em/G"E "A7"A, A,|"D"D2 z||
w:las-sie go this way and that?
w:lad-die go this way and that?
